flaticon/interaction/notepad.svg

<svg xmlns="http://www.w3.org/2000/svg" width="32" height="32" viewBox="0 0 24 24">
    <path d="M 18.199219 13.621094 L 18.199219 2.800781 C 18.199219 2.578125 18.019531 2.398438 17.800781 2.398438 L 14.601562 2.398438 L 14.601562 1.601562 C 14.601562 1.378906 14.421875 1.199219 14.199219 1.199219 L 11.800781 1.199219 L 11.800781 0.398438 C 11.800781 0.179688 11.621094 0 11.398438 0 L 7.800781 0 C 7.578125 0 7.398438 0.179688 7.398438 0.398438 L 7.398438 1.199219 L 5 1.199219 C 4.777344 1.199219 4.601562 1.378906 4.601562 1.601562 L 4.601562 2.398438 L 1.398438 2.398438 C 1.179688 2.398438 1 2.578125 1 2.800781 L 1 22.800781 C 1 23.019531 1.179688 23.199219 1.398438 23.199219 L 15.042969 23.199219 C 15.84375 23.703125 16.785156 24 17.800781 24 C 20.667969 24 23 21.667969 23 18.800781 C 23 16.066406 20.878906 13.824219 18.199219 13.621094 Z M 8.199219 0.800781 L 11 0.800781 L 11 2.398438 L 8.199219 2.398438 Z M 5.398438 2 L 7.398438 2 L 7.398438 2.800781 C 7.398438 3.019531 7.578125 3.199219 7.800781 3.199219 L 11.398438 3.199219 C 11.621094 3.199219 11.800781 3.019531 11.800781 2.800781 L 11.800781 2 L 13.800781 2 L 13.800781 3.601562 L 5.398438 3.601562 Z M 1.800781 22.398438 L 1.800781 3.199219 L 4.601562 3.199219 L 4.601562 4 C 4.601562 4.222656 4.777344 4.398438 5 4.398438 L 14.199219 4.398438 C 14.421875 4.398438 14.601562 4.222656 14.601562 4 L 14.601562 3.199219 L 17.398438 3.199219 L 17.398438 13.613281 C 17.378906 13.617188 17.355469 13.621094 17.332031 13.625 C 17.253906 13.628906 17.175781 13.640625 17.101562 13.652344 C 17.007812 13.664062 16.917969 13.675781 16.828125 13.695312 C 16.75 13.710938 16.675781 13.726562 16.597656 13.746094 C 16.511719 13.765625 16.421875 13.789062 16.339844 13.8125 C 16.261719 13.835938 16.191406 13.859375 16.117188 13.886719 C 16.03125 13.914062 15.949219 13.945312 15.867188 13.976562 C 15.796875 14.003906 15.726562 14.035156 15.65625 14.070312 C 15.574219 14.105469 15.496094 14.144531 15.417969 14.183594 C 15.351562 14.21875 15.28125 14.253906 15.21875 14.292969 C 15.140625 14.335938 15.066406 14.382812 14.996094 14.429688 C 14.929688 14.46875 14.867188 14.511719 14.804688 14.558594 C 14.734375 14.609375 14.664062 14.660156 14.597656 14.714844 C 14.535156 14.761719 14.476562 14.808594 14.417969 14.859375 C 14.355469 14.914062 14.289062 14.972656 14.226562 15.03125 C 14.171875 15.085938 14.117188 15.136719 14.066406 15.191406 C 14.003906 15.253906 13.945312 15.320312 13.886719 15.386719 C 13.839844 15.441406 13.789062 15.5 13.742188 15.558594 C 13.6875 15.625 13.636719 15.699219 13.585938 15.769531 C 13.539062 15.832031 13.496094 15.890625 13.453125 15.953125 C 13.40625 16.027344 13.359375 16.105469 13.316406 16.183594 C 13.277344 16.246094 13.238281 16.308594 13.203125 16.375 C 13.160156 16.457031 13.125 16.539062 13.085938 16.621094 C 13.054688 16.6875 13.023438 16.753906 12.996094 16.820312 C 12.957031 16.910156 12.925781 17 12.894531 17.089844 C 12.871094 17.15625 12.847656 17.222656 12.828125 17.289062 C 12.796875 17.386719 12.773438 17.484375 12.75 17.582031 C 12.734375 17.644531 12.71875 17.710938 12.703125 17.777344 C 12.679688 17.886719 12.667969 18 12.652344 18.109375 C 12.644531 18.167969 12.632812 18.222656 12.628906 18.28125 C 12.609375 18.453125 12.601562 18.625 12.601562 18.800781 C 12.601562 18.972656 12.609375 19.148438 12.625 19.316406 C 12.632812 19.382812 12.644531 19.445312 12.65625 19.507812 C 12.667969 19.613281 12.679688 19.71875 12.703125 19.824219 C 12.714844 19.894531 12.738281 19.960938 12.753906 20.03125 C 12.777344 20.125 12.796875 20.222656 12.828125 20.316406 C 12.847656 20.378906 12.871094 20.441406 12.894531 20.503906 C 12.925781 20.601562 12.960938 20.699219 13 20.792969 C 13.019531 20.847656 13.046875 20.898438 13.070312 20.949219 C 13.117188 21.050781 13.164062 21.152344 13.214844 21.25 C 13.238281 21.292969 13.265625 21.335938 13.289062 21.375 C 13.347656 21.480469 13.410156 21.582031 13.476562 21.683594 C 13.5 21.71875 13.527344 21.753906 13.550781 21.789062 C 13.621094 21.890625 13.695312 21.988281 13.773438 22.082031 C 13.800781 22.117188 13.832031 22.152344 13.863281 22.1875 C 13.925781 22.257812 13.984375 22.332031 14.050781 22.398438 Z M 17.800781 23.199219 C 16.898438 23.199219 16.054688 22.925781 15.355469 22.457031 C 15.222656 22.367188 15.09375 22.265625 14.96875 22.164062 C 14.925781 22.125 14.882812 22.085938 14.84375 22.046875 C 14.765625 21.976562 14.6875 21.902344 14.613281 21.828125 C 14.566406 21.777344 14.523438 21.726562 14.476562 21.675781 C 14.414062 21.601562 14.351562 21.523438 14.292969 21.445312 C 14.253906 21.394531 14.214844 21.34375 14.175781 21.289062 C 14.089844 21.164062 14.003906 21.03125 13.929688 20.894531 C 13.914062 20.863281 13.898438 20.828125 13.882812 20.796875 C 13.824219 20.679688 13.769531 20.566406 13.722656 20.445312 C 13.703125 20.394531 13.683594 20.339844 13.664062 20.289062 C 13.625 20.183594 13.59375 20.078125 13.5625 19.96875 C 13.546875 19.914062 13.53125 19.859375 13.519531 19.800781 C 13.492188 19.6875 13.472656 19.574219 13.453125 19.457031 C 13.445312 19.40625 13.4375 19.355469 13.429688 19.304688 C 13.414062 19.140625 13.398438 18.96875 13.398438 18.800781 C 13.398438 16.375 15.375 14.398438 17.800781 14.398438 C 20.226562 14.398438 22.199219 16.375 22.199219 18.800781 C 22.199219 21.226562 20.226562 23.199219 17.800781 23.199219 Z M 17.800781 23.199219"/>
    <path d="M20.199219 18.398438L18.199219 18.398438 18.199219 16.398438C18.199219 16.179688 18.019531 16 17.800781 16 17.578125 16 17.398438 16.179688 17.398438 16.398438L17.398438 18.398438 15.398438 18.398438C15.179688 18.398438 15 18.578125 15 18.800781 15 19.019531 15.179688 19.199219 15.398438 19.199219L17.398438 19.199219 17.398438 21.199219C17.398438 21.421875 17.578125 21.601562 17.800781 21.601562 18.019531 21.601562 18.199219 21.421875 18.199219 21.199219L18.199219 19.199219 20.199219 19.199219C20.421875 19.199219 20.601562 19.019531 20.601562 18.800781 20.601562 18.578125 20.421875 18.398438 20.199219 18.398438zM3.800781 7.199219L9 7.199219C9.222656 7.199219 9.398438 7.019531 9.398438 6.800781 9.398438 6.578125 9.222656 6.398438 9 6.398438L3.800781 6.398438C3.578125 6.398438 3.398438 6.578125 3.398438 6.800781 3.398438 7.019531 3.578125 7.199219 3.800781 7.199219zM9 18.398438L3.800781 18.398438C3.578125 18.398438 3.398438 18.578125 3.398438 18.800781 3.398438 19.019531 3.578125 19.199219 3.800781 19.199219L9 19.199219C9.222656 19.199219 9.398438 19.019531 9.398438 18.800781 9.398438 18.578125 9.222656 18.398438 9 18.398438zM3.800781 9.601562L15.398438 9.601562C15.621094 9.601562 15.800781 9.421875 15.800781 9.199219 15.800781 8.980469 15.621094 8.800781 15.398438 8.800781L3.800781 8.800781C3.578125 8.800781 3.398438 8.980469 3.398438 9.199219 3.398438 9.421875 3.578125 9.601562 3.800781 9.601562zM3.800781 14.398438L13.398438 14.398438C13.621094 14.398438 13.800781 14.222656 13.800781 14 13.800781 13.777344 13.621094 13.601562 13.398438 13.601562L3.800781 13.601562C3.578125 13.601562 3.398438 13.777344 3.398438 14 3.398438 14.222656 3.578125 14.398438 3.800781 14.398438zM11.398438 16L3.800781 16C3.578125 16 3.398438 16.179688 3.398438 16.398438 3.398438 16.621094 3.578125 16.800781 3.800781 16.800781L11.398438 16.800781C11.621094 16.800781 11.800781 16.621094 11.800781 16.398438 11.800781 16.179688 11.621094 16 11.398438 16zM3.800781 12L9.398438 12C9.621094 12 9.800781 11.820312 9.800781 11.601562 9.800781 11.378906 9.621094 11.199219 9.398438 11.199219L3.800781 11.199219C3.578125 11.199219 3.398438 11.378906 3.398438 11.601562 3.398438 11.820312 3.578125 12 3.800781 12zM15.398438 11.199219L12.601562 11.199219C12.378906 11.199219 12.199219 11.378906 12.199219 11.601562 12.199219 11.820312 12.378906 12 12.601562 12L15.398438 12C15.621094 12 15.800781 11.820312 15.800781 11.601562 15.800781 11.378906 15.621094 11.199219 15.398438 11.199219zM10.714844 11.316406C10.644531 11.390625 10.601562 11.496094 10.601562 11.601562 10.601562 11.703125 10.644531 11.808594 10.714844 11.882812 10.792969 11.960938 10.894531 12 11 12 11.105469 12 11.207031 11.960938 11.285156 11.882812 11.355469 11.808594 11.398438 11.703125 11.398438 11.601562 11.398438 11.496094 11.355469 11.390625 11.285156 11.316406 11.136719 11.167969 10.863281 11.167969 10.714844 11.316406zM10.714844 11.316406"/>
</svg>

<svg xmlns="http://www.w3.org/2000/svg" width="32" height="32" viewBox="0 0 24 24">
    <path d="M18.2 13.621V2.801a.401.401 0 0 0-.4-.403h-3.198v-.796a.402.402 0 0 0-.403-.403h-2.398V.4A.401.401 0 0 0 11.398 0H7.801a.401.401 0 0 0-.403.398V1.2H5a.398.398 0 0 0-.398.403v.796H1.398A.401.401 0 0 0 1 2.801v20a.4.4 0 0 0 .398.398h13.645c.8.504 1.742.801 2.758.801C20.668 24 23 21.668 23 18.8a5.202 5.202 0 0 0-4.8-5.179zM8.2.801H11v1.597H8.2zM5.397 2h2v.8c0 .22.18.4.403.4h3.597c.223 0 .403-.18.403-.4V2h2v1.602H5.398zM1.801 22.398V3.2h2.8V4c0 .223.176.398.399.398h9.2A.398.398 0 0 0 14.601 4v-.8h2.796v10.413l-.066.012a2.186 2.186 0 0 0-.23.027 4.868 4.868 0 0 0-.504.094 3.717 3.717 0 0 0-.48.14 4.707 4.707 0 0 0-.25.09c-.071.028-.141.06-.212.094-.082.035-.16.075-.238.114-.066.035-.137.07-.2.109-.077.043-.152.09-.222.137a2.05 2.05 0 0 0-.191.129c-.07.05-.14.101-.207.156a3.228 3.228 0 0 0-.18.144 7.588 7.588 0 0 0-.191.172c-.055.055-.11.106-.16.16a4.254 4.254 0 0 0-.18.196c-.047.054-.098.113-.145.172-.055.066-.105.14-.156.21-.047.063-.09.122-.133.184a4.473 4.473 0 0 0-.137.23c-.039.063-.078.126-.113.192-.043.082-.078.164-.117.246a4.472 4.472 0 0 0-.09.2c-.039.09-.07.179-.101.269-.024.066-.047.133-.067.2-.031.097-.055.194-.078.292l-.047.195c-.023.11-.035.223-.05.332-.008.059-.02.114-.024.172-.02.172-.027.344-.027.52 0 .172.007.347.023.515.008.067.02.13.031.192.012.105.024.21.047.316.012.07.035.137.05.207.024.094.044.192.075.285.02.063.043.125.067.188.03.098.066.195.105.289.02.055.047.105.07.156.047.102.094.203.145.301.023.043.05.086.074.125.059.105.121.207.188.309.023.035.05.07.074.105.07.102.144.2.222.293.028.035.059.07.09.105.063.07.121.145.188.211zm16 .801a4.383 4.383 0 0 1-2.832-1.035c-.043-.039-.086-.078-.125-.117a6.096 6.096 0 0 1-.23-.219c-.048-.05-.09-.101-.137-.152a5.272 5.272 0 0 1-.184-.23 4.467 4.467 0 0 1-.363-.55l-.047-.1a4.052 4.052 0 0 1-.16-.35l-.059-.157c-.039-.105-.07-.21-.101-.32-.016-.055-.032-.11-.043-.168a4.859 4.859 0 0 1-.067-.344l-.023-.152a5.368 5.368 0 0 1-.032-.504 4.41 4.41 0 0 1 4.403-4.403 4.406 4.406 0 0 1 4.398 4.403 4.403 4.403 0 0 1-4.398 4.398zm0 0"/>
    <path d="M20.2 18.398h-2v-2a.4.4 0 0 0-.802 0v2h-2a.401.401 0 0 0 0 .801h2v2a.401.401 0 0 0 .8 0l.001-2h2a.401.401 0 1 0 0-.8zm0 0M3.8 7.2H9c.223 0 .398-.18.398-.4A.398.398 0 0 0 9 6.399H3.8a.401.401 0 0 0 0 .8zm0 0M9 18.398H3.8a.401.401 0 0 0 0 .8L9 19.2c.223 0 .398-.18.398-.398A.398.398 0 0 0 9 18.398zm0 0M3.8 9.602h11.598a.401.401 0 0 0 0-.8L3.801 8.8a.401.401 0 1 0 0 .8zm0 0M3.8 14.398h9.598a.398.398 0 1 0 0-.796H3.801a.398.398 0 1 0 0 .796zm0 0M11.398 16H3.801a.401.401 0 1 0 0 .8h7.597a.401.401 0 0 0 0-.8zm0 0M3.8 12h5.598a.401.401 0 1 0 0-.8H3.801a.401.401 0 0 0 0 .8zm0 0M15.398 11.2h-2.796a.401.401 0 0 0 0 .8h2.796a.401.401 0 1 0 0-.8zm0 0M10.715 11.316a.423.423 0 0 0-.113.286.42.42 0 0 0 .113.28c.078.079.18.118.285.118.105 0 .207-.04.285-.117a.42.42 0 0 0 .113-.281.423.423 0 0 0-.113-.286.42.42 0 0 0-.57 0zm0 0"/>
</svg>
